findly-builder/apps/searchassist/src/assets/icons/onboarding/search-design.svg

<svg width="20" height="20" viewBox="0 0 20 20" fill="none" xmlns="http://www.w3.org/2000/svg">
<g clip-path="url(#clip0_629_33032)">
<path d="M1.66602 15.8333V6.25H18.3327V15.8333C18.3327 16.2917 17.9577 16.6667 17.4993 16.6667H2.49935C2.04102 16.6667 1.66602 16.2917 1.66602 15.8333Z" fill="#50E6FF"/>
<path d="M18.3327 4.16659V6.24992H1.66602V4.16659C1.66602 3.70825 2.04102 3.33325 2.49935 3.33325H17.4993C17.9577 3.33325 18.3327 3.70825 18.3327 4.16659Z" fill="url(#paint0_linear_629_33032)"/>
<path d="M6.87435 5.41675H17.291C17.406 5.41675 17.4993 5.32342 17.4993 5.20842V4.37508C17.4993 4.26008 17.406 4.16675 17.291 4.16675H6.87435C6.75935 4.16675 6.66602 4.26008 6.66602 4.37508V5.20842C6.66602 5.32342 6.75935 5.41675 6.87435 5.41675Z" fill="url(#paint1_linear_629_33032)"/>
<path d="M3.125 5.41675C3.47018 5.41675 3.75 5.13693 3.75 4.79175C3.75 4.44657 3.47018 4.16675 3.125 4.16675C2.77982 4.16675 2.5 4.44657 2.5 4.79175C2.5 5.13693 2.77982 5.41675 3.125 5.41675Z" fill="url(#paint2_linear_629_33032)"/>
<path d="M5.20898 5.41675C5.55416 5.41675 5.83398 5.13693 5.83398 4.79175C5.83398 4.44657 5.55416 4.16675 5.20898 4.16675C4.86381 4.16675 4.58398 4.44657 4.58398 4.79175C4.58398 5.13693 4.86381 5.41675 5.20898 5.41675Z" fill="url(#paint3_linear_629_33032)"/>
<path d="M18.7464 18.01L18.0098 18.7467L19.2327 19.9696C19.2735 20.0104 19.3394 20.0104 19.3802 19.9696L19.9694 19.3804C20.0102 19.3396 20.0102 19.2738 19.9694 19.2329L18.7464 18.01Z" fill="#199BE2"/>
<path d="M17.8339 17.0972L17.0977 17.8334L18.0106 18.7468L18.7472 18.0101L17.8339 17.0972Z" fill="url(#paint4_radial_629_33032)"/>
<path d="M15.4167 11.25C13.1192 11.25 11.25 13.1192 11.25 15.4167C11.25 15.8521 11.3179 16.2717 11.4421 16.6667H17.5C17.9583 16.6667 18.3333 16.2917 18.3333 15.8333V12.4462C17.5813 11.7075 16.5517 11.25 15.4167 11.25Z" fill="url(#paint5_radial_629_33032)"/>
<path d="M15.4173 18.7499C17.2583 18.7499 18.7507 17.2575 18.7507 15.4166C18.7507 13.5756 17.2583 12.0833 15.4173 12.0833C13.5764 12.0833 12.084 13.5756 12.084 15.4166C12.084 17.2575 13.5764 18.7499 15.4173 18.7499Z" fill="url(#paint6_linear_629_33032)"/>
</g>
<defs>
<linearGradient id="paint0_linear_629_33032" x1="1.92185" y1="3.22534" x2="17.8894" y2="6.472" gradientUnits="userSpaceOnUse">
<stop stop-color="#0077D2"/>
<stop offset="1" stop-color="#0B59A2"/>
</linearGradient>
<linearGradient id="paint1_linear_629_33032" x1="6.66602" y1="4.79175" x2="17.4993" y2="4.79175" gradientUnits="userSpaceOnUse">
<stop stop-color="#7DD8F3"/>
<stop offset="1" stop-color="#45B0D0"/>
</linearGradient>
<linearGradient id="paint2_linear_629_33032" x1="2.81292" y1="4.34008" x2="3.34667" y2="5.11216" gradientUnits="userSpaceOnUse">
<stop stop-color="#75DAFF"/>
<stop offset="1" stop-color="#49BEF1"/>
</linearGradient>
<linearGradient id="paint3_linear_629_33032" x1="4.8969" y1="4.34008" x2="5.43065" y2="5.11216" gradientUnits="userSpaceOnUse">
<stop stop-color="#75DAFF"/>
<stop offset="1" stop-color="#49BEF1"/>
</linearGradient>
<radialGradient id="paint4_radial_629_33032" cx="0" cy="0" r="1" gradientUnits="userSpaceOnUse" gradientTransform="translate(15.4222 15.4368) scale(4.08416)">
<stop offset="0.693" stop-color="#006185"/>
<stop offset="0.921" stop-color="#35C1F1"/>
</radialGradient>
<radialGradient id="paint5_radial_629_33032" cx="0" cy="0" r="1" gradientUnits="userSpaceOnUse" gradientTransform="translate(15.39 15.3812) scale(4.02292)">
<stop/>
<stop offset="1" stop-opacity="0"/>
</radialGradient>
<linearGradient id="paint6_linear_629_33032" x1="13.1069" y1="13.1062" x2="17.7794" y2="17.7787" gradientUnits="userSpaceOnUse">
<stop stop-color="#A3FFFF"/>
<stop offset="0.223" stop-color="#9DFBFF"/>
<stop offset="0.53" stop-color="#8BF1FF"/>
<stop offset="0.885" stop-color="#6EE0FF"/>
<stop offset="1" stop-color="#63DAFF"/>
</linearGradient>
<clipPath id="clip0_629_33032">
<rect width="20" height="20" fill="white"/>
</clipPath>
</defs>
</svg>

<svg width="20" height="20" fill="none" xmlns="http://www.w3.org/2000/svg"><g clip-path="url(#a)"><path d="M1.666 15.833V6.25h16.667v9.583a.836.836 0 0 1-.834.834h-15a.836.836 0 0 1-.833-.834Z" fill="#50E6FF"/><path d="M18.333 4.167V6.25H1.666V4.167c0-.459.375-.834.833-.834h15c.459 0 .834.375.834.834Z" fill="url(#b)"/><path d="M6.874 5.417h10.417a.208.208 0 0 0 .208-.209v-.833a.208.208 0 0 0-.208-.208H6.874a.208.208 0 0 0-.208.208v.833c0 .115.093.209.208.209Z" fill="url(#c)"/><path d="M3.125 5.417a.625.625 0 1 0 0-1.25.625.625 0 0 0 0 1.25Z" fill="url(#d)"/><path d="M5.209 5.417a.625.625 0 1 0 0-1.25.625.625 0 0 0 0 1.25Z" fill="url(#e)"/><path d="m18.746 18.01-.736.737 1.223 1.223c.04.04.106.04.147 0l.59-.59a.104.104 0 0 0 0-.147l-1.224-1.223Z" fill="#199BE2"/><path d="m17.834 17.097-.736.736.913.914.736-.737-.913-.913Z" fill="url(#f)"/><path d="M15.417 11.25a4.171 4.171 0 0 0-3.975 5.417H17.5a.836.836 0 0 0 .833-.834v-3.387a4.151 4.151 0 0 0-2.916-1.196Z" fill="url(#g)"/><path d="M15.417 18.75a3.333 3.333 0 1 0 0-6.667 3.333 3.333 0 0 0 0 6.667Z" fill="url(#h)"/></g><defs><linearGradient id="b" x1="1.922" y1="3.225" x2="17.889" y2="6.472" gradientUnits="userSpaceOnUse"><stop stop-color="#0077D2"/><stop offset="1" stop-color="#0B59A2"/></linearGradient><linearGradient id="c" x1="6.666" y1="4.792" x2="17.499" y2="4.792" gradientUnits="userSpaceOnUse"><stop stop-color="#7DD8F3"/><stop offset="1" stop-color="#45B0D0"/></linearGradient><linearGradient id="d" x1="2.813" y1="4.34" x2="3.347" y2="5.112" gradientUnits="userSpaceOnUse"><stop stop-color="#75DAFF"/><stop offset="1" stop-color="#49BEF1"/></linearGradient><linearGradient id="e" x1="4.897" y1="4.34" x2="5.431" y2="5.112" gradientUnits="userSpaceOnUse"><stop stop-color="#75DAFF"/><stop offset="1" stop-color="#49BEF1"/></linearGradient><linearGradient id="h" x1="13.107" y1="13.106" x2="17.779" y2="17.779" gradientUnits="userSpaceOnUse"><stop stop-color="#A3FFFF"/><stop offset=".223" stop-color="#9DFBFF"/><stop offset=".53" stop-color="#8BF1FF"/><stop offset=".885" stop-color="#6EE0FF"/><stop offset="1" stop-color="#63DAFF"/></linearGradient><radialGradient id="f" cx="0" cy="0" r="1" gradientUnits="userSpaceOnUse" gradientTransform="translate(15.422 15.437) scale(4.08416)"><stop offset=".693" stop-color="#006185"/><stop offset=".921" stop-color="#35C1F1"/></radialGradient><radialGradient id="g" cx="0" cy="0" r="1" gradientUnits="userSpaceOnUse" gradientTransform="translate(15.39 15.381) scale(4.02292)"><stop/><stop offset="1" stop-opacity="0"/></radialGradient><clipPath id="a"><path fill="#fff" d="M0 0h20v20H0z"/></clipPath></defs></svg>
